src/assets/icons/payment-fast.svg

<?xml version="1.0" encoding="UTF-8"?>
<svg width="30px" height="30px" viewBox="0 0 30 30" version="1.1" xmlns="http://www.w3.org/2000/svg" xmlns:xlink="http://www.w3.org/1999/xlink">
    <!-- Generator: Sketch 55.1 (78136) - https://sketchapp.com -->
    <title>Compra rápida / Branco</title>
    <desc>Created with Sketch.</desc>
    <g id="Compra-rápida-/-Branco" stroke="none" stroke-width="1" fill="none" fill-rule="evenodd">
        <path d="M0.450079802,22.5 C0.411913973,22.5 0.374098682,22.4927174 0.338662599,22.478543 C0.184827544,22.417009 0.110002773,22.2424179 0.171536795,22.0885828 L5.89382024,7.7828742 C5.96215874,7.61202792 6.12762768,7.5 6.31163475,7.5 L29.56386,7.5 C29.6020259,7.5 29.6398411,7.50728256 29.6752772,7.52145699 C29.8291123,7.58299101 29.9039371,7.75758215 29.842403,7.9114172 L24.1201196,22.2171258 C24.0517811,22.3879721 23.8863121,22.5 23.7023051,22.5 L0.450079802,22.5 Z M22.5987181,15.3841881 C22.7115792,15.2691989 22.7390529,15.0889343 22.6545601,14.9425885 L20.2630695,10.8004053 C20.1614708,10.6244311 19.9364534,10.5641379 19.7604792,10.6657367 L18.748212,11.2501694 C18.5722378,11.3517682 18.5119446,11.5767855 18.6135433,11.7527597 L20.5487345,15.1046092 L18.2700829,18.358861 C18.1535336,18.5253107 18.1939858,18.7547267 18.3604355,18.871276 L19.2645867,19.5043695 C19.4310364,19.6209188 19.6604523,19.5804665 19.7770016,19.4140169 L22.5987181,15.3841881 Z M17.5987181,15.3841881 C17.7115792,15.2691989 17.7390529,15.0889343 17.6545601,14.9425885 L15.2630695,10.8004053 C15.1614708,10.6244311 14.9364534,10.5641379 14.7604792,10.6657367 L13.748212,11.2501694 C13.5722378,11.3517682 13.5119446,11.5767855 13.6135433,11.7527597 L15.5487345,15.1046092 L13.2700829,18.358861 C13.1535336,18.5253107 13.1939858,18.7547267 13.3604355,18.871276 L14.2645867,19.5043695 C14.4310364,19.6209188 14.6604523,19.5804665 14.7770016,19.4140169 L17.5987181,15.3841881 Z" id="Combined-Shape" fill="#FFFFFF" fill-rule="nonzero"></path>
    </g>
</svg>

<svg width="30" height="30" viewBox="0 0 30 30" xmlns="http://www.w3.org/2000/svg"><title>Compra rápida / Branco</title><path d="M.45 22.5a.3.3 0 0 1-.278-.411L5.894 7.783a.45.45 0 0 1 .418-.283h23.252a.3.3 0 0 1 .278.411L24.12 22.217a.45.45 0 0 1-.418.283H.45zM22.6 15.384a.368.368 0 0 0 .056-.441L20.263 10.8a.368.368 0 0 0-.503-.134l-1.012.584a.368.368 0 0 0-.134.503l1.935 3.352-2.279 3.254a.368.368 0 0 0 .09.512l.905.633a.368.368 0 0 0 .512-.09l2.822-4.03zm-5 0a.368.368 0 0 0 .056-.441L15.263 10.8a.368.368 0 0 0-.503-.134l-1.012.584a.368.368 0 0 0-.134.503l1.935 3.352-2.279 3.254a.368.368 0 0 0 .09.512l.905.633a.368.368 0 0 0 .512-.09l2.822-4.03z" fill="#FFF" fill-rule="nonzero"/></svg>
